images/themes/sigpacgo/nodpi/ic_dissatisfied_white_24dp.svg

<svg xmlns="http://www.w3.org/2000/svg" xmlns:xlink="http://www.w3.org/1999/xlink" width="24" height="24" viewBox="0 0 24 24">
<path fill-rule="nonzero" fill="rgb(100%, 100%, 100%)" fill-opacity="1" d="M 17 9.5 C 17 10.328125 16.328125 11 15.5 11 C 14.671875 11 14 10.328125 14 9.5 C 14 8.671875 14.671875 8 15.5 8 C 16.328125 8 17 8.671875 17 9.5 Z M 17 9.5 "/>
<path fill-rule="nonzero" fill="rgb(100%, 100%, 100%)" fill-opacity="1" d="M 10 9.5 C 10 10.328125 9.328125 11 8.5 11 C 7.671875 11 7 10.328125 7 9.5 C 7 8.671875 7.671875 8 8.5 8 C 9.328125 8 10 8.671875 10 9.5 Z M 10 9.5 "/>
<path fill-rule="nonzero" fill="rgb(100%, 100%, 100%)" fill-opacity="1" d="M 12 14 C 9.671875 14 7.679688 15.449219 6.878906 17.5 L 8.550781 17.5 C 9.238281 16.308594 10.519531 15.5 12 15.5 C 13.480469 15.5 14.75 16.308594 15.449219 17.5 L 17.121094 17.5 C 16.320312 15.449219 14.328125 14 12 14 Z M 11.988281 2 C 6.46875 2 2 6.480469 2 12 C 2 17.519531 6.46875 22 11.988281 22 C 17.519531 22 22 17.519531 22 12 C 22 6.480469 17.519531 2 11.988281 2 Z M 12 20 C 7.578125 20 4 16.421875 4 12 C 4 7.578125 7.578125 4 12 4 C 16.421875 4 20 7.578125 20 12 C 20 16.421875 16.421875 20 12 20 Z M 12 20 "/>
</svg>

<svg xmlns="http://www.w3.org/2000/svg" height="24px" viewBox="0 0 24 24" width="24px" fill="#FFFFFF"><path d="M0 0h24v24H0V0z" fill="none"/><circle cx="15.5" cy="9.5" r="1.5"/><circle cx="8.5" cy="9.5" r="1.5"/><path d="M12 14c-2.33 0-4.32 1.45-5.12 3.5h1.67c.69-1.19 1.97-2 3.45-2s2.75.81 3.45 2h1.67c-.8-2.05-2.79-3.5-5.12-3.5zm-.01-12C6.47 2 2 6.48 2 12s4.47 10 9.99 10C17.52 22 22 17.52 22 12S17.52 2 11.99 2zM12 20c-4.42 0-8-3.58-8-8s3.58-8 8-8 8 3.58 8 8-3.58 8-8 8z"/></svg>
